bernoullicharts/0_5_x_1_0_5_x__bound.svg

<?xml version="1.0" encoding="utf-8" standalone="no"?>
<!DOCTYPE svg PUBLIC "-//W3C//DTD SVG 1.1//EN"
  "http://www.w3.org/Graphics/SVG/1.1/DTD/svg11.dtd">
<!-- Created with matplotlib (https://matplotlib.org/) -->
<svg height="345.6pt" version="1.1" viewBox="0 0 460.8 345.6" width="460.8pt" xmlns="http://www.w3.org/2000/svg" xmlns:xlink="http://www.w3.org/1999/xlink">
 <defs>
  <style type="text/css">
*{stroke-linecap:butt;stroke-linejoin:round;}
  </style>
 </defs>
 <g id="figure_1">
  <g id="patch_1">
   <path d="M 0 345.6 
L 460.8 345.6 
L 460.8 0 
L 0 0 
z
" style="fill:#ffffff;"/>
  </g>
  <g id="axes_1">
   <g id="patch_2">
    <path d="M 57.6 307.584 
L 414.72 307.584 
L 414.72 41.472 
L 57.6 41.472 
z
" style="fill:#ffffff;"/>
   </g>
   <g id="matplotlib.axis_1">
    <g id="xtick_1">
     <g id="line2d_1">
      <defs>
       <path d="M 0 0 
L 0 3.5 
" id="mb0337742e0" style="stroke:#000000;stroke-width:0.8;"/>
      </defs>
      <g>
       <use style="stroke:#000000;stroke-width:0.8;" x="73.800255" xlink:href="#mb0337742e0" y="307.584"/>
      </g>
     </g>
     <g id="text_1">
      <text style="font-family:DejaVu Sans;font-size:10px;font-style:normal;font-weight:normal;text-anchor:middle;" transform="rotate(-0, 73.800255, 322.182437)" x="73.800255" y="322.182437">0.0</text>
     </g>
    </g>
    <g id="xtick_2">
     <g id="line2d_2">
      <g>
       <use style="stroke:#000000;stroke-width:0.8;" x="138.744153" xlink:href="#mb0337742e0" y="307.584"/>
      </g>
     </g>
     <g id="text_2">
      <text style="font-family:DejaVu Sans;font-size:10px;font-style:normal;font-weight:normal;text-anchor:middle;" transform="rotate(-0, 138.744153, 322.182437)" x="138.744153" y="322.182437">0.2</text>
     </g>
    </g>
    <g id="xtick_3">
     <g id="line2d_3">
      <g>
       <use style="stroke:#000000;stroke-width:0.8;" x="203.688051" xlink:href="#mb0337742e0" y="307.584"/>
      </g>
     </g>
     <g id="text_3">
      <text style="font-family:DejaVu Sans;font-size:10px;font-style:normal;font-weight:normal;text-anchor:middle;" transform="rotate(-0, 203.688051, 322.182437)" x="203.688051" y="322.182437">0.4</text>
     </g>
    </g>
    <g id="xtick_4">
     <g id="line2d_4">
      <g>
       <use style="stroke:#000000;stroke-width:0.8;" x="268.631949" xlink:href="#mb0337742e0" y="307.584"/>
      </g>
     </g>
     <g id="text_4">
      <text style="font-family:DejaVu Sans;font-size:10px;font-style:normal;font-weight:normal;text-anchor:middle;" transform="rotate(-0, 268.631949, 322.182437)" x="268.631949" y="322.182437">0.6</text>
     </g>
    </g>
    <g id="xtick_5">
     <g id="line2d_5">
      <g>
       <use style="stroke:#000000;stroke-width:0.8;" x="333.575847" xlink:href="#mb0337742e0" y="307.584"/>
      </g>
     </g>
     <g id="text_5">
      <text style="font-family:DejaVu Sans;font-size:10px;font-style:normal;font-weight:normal;text-anchor:middle;" transform="rotate(-0, 333.575847, 322.182437)" x="333.575847" y="322.182437">0.8</text>
     </g>
    </g>
    <g id="xtick_6">
     <g id="line2d_6">
      <g>
       <use style="stroke:#000000;stroke-width:0.8;" x="398.519745" xlink:href="#mb0337742e0" y="307.584"/>
      </g>
     </g>
     <g id="text_6">
      <text style="font-family:DejaVu Sans;font-size:10px;font-style:normal;font-weight:normal;text-anchor:middle;" transform="rotate(-0, 398.519745, 322.182437)" x="398.519745" y="322.182437">1.0</text>
     </g>
    </g>
    <g id="text_7">
     <text style="font-family:DejaVu Sans;font-size:10px;font-style:normal;font-weight:normal;text-anchor:middle;" transform="rotate(-0, 236.16, 335.860562)" x="236.16" y="335.860562">Input Coin's Heads Probability (λ)</text>
    </g>
   </g>
   <g id="matplotlib.axis_2">
    <g id="ytick_1">
     <g id="line2d_7">
      <defs>
       <path d="M 0 0 
L -3.5 0 
" id="mf57be5e11b" style="stroke:#000000;stroke-width:0.8;"/>
      </defs>
      <g>
       <use style="stroke:#000000;stroke-width:0.8;" x="57.6" xlink:href="#mf57be5e11b" y="295.497811"/>
      </g>
     </g>
     <g id="text_8">
      <text style="font-family:DejaVu Sans;font-size:10px;font-style:normal;font-weight:normal;text-anchor:end;" transform="rotate(-0, 50.6, 299.29703)" x="50.6" y="299.29703">0.0</text>
     </g>
    </g>
    <g id="ytick_2">
     <g id="line2d_8">
      <g>
       <use style="stroke:#000000;stroke-width:0.8;" x="57.6" xlink:href="#mf57be5e11b" y="251.350035"/>
      </g>
     </g>
     <g id="text_9">
      <text style="font-family:DejaVu Sans;font-size:10px;font-style:normal;font-weight:normal;text-anchor:end;" transform="rotate(-0, 50.6, 255.149254)" x="50.6" y="255.149254">0.1</text>
     </g>
    </g>
    <g id="ytick_3">
     <g id="line2d_9">
      <g>
       <use style="stroke:#000000;stroke-width:0.8;" x="57.6" xlink:href="#mf57be5e11b" y="207.20226"/>
      </g>
     </g>
     <g id="text_10">
      <text style="font-family:DejaVu Sans;font-size:10px;font-style:normal;font-weight:normal;text-anchor:end;" transform="rotate(-0, 50.6, 211.001478)" x="50.6" y="211.001478">0.2</text>
     </g>
    </g>
    <g id="ytick_4">
     <g id="line2d_10">
      <g>
       <use style="stroke:#000000;stroke-width:0.8;" x="57.6" xlink:href="#mf57be5e11b" y="163.054484"/>
      </g>
     </g>
     <g id="text_11">
      <text style="font-family:DejaVu Sans;font-size:10px;font-style:normal;font-weight:normal;text-anchor:end;" transform="rotate(-0, 50.6, 166.853703)" x="50.6" y="166.853703">0.3</text>
     </g>
    </g>
    <g id="ytick_5">
     <g id="line2d_11">
      <g>
       <use style="stroke:#000000;stroke-width:0.8;" x="57.6" xlink:href="#mf57be5e11b" y="118.906708"/>
      </g>
     </g>
     <g id="text_12">
      <text style="font-family:DejaVu Sans;font-size:10px;font-style:normal;font-weight:normal;text-anchor:end;" transform="rotate(-0, 50.6, 122.705927)" x="50.6" y="122.705927">0.4</text>
     </g>
    </g>
    <g id="ytick_6">
     <g id="line2d_12">
      <g>
       <use style="stroke:#000000;stroke-width:0.8;" x="57.6" xlink:href="#mf57be5e11b" y="74.758932"/>
      </g>
     </g>
     <g id="text_13">
      <text style="font-family:DejaVu Sans;font-size:10px;font-style:normal;font-weight:normal;text-anchor:end;" transform="rotate(-0, 50.6, 78.558151)" x="50.6" y="78.558151">0.5</text>
     </g>
    </g>
    <g id="text_14">
     <text style="font-family:DejaVu Sans;font-size:10px;font-style:normal;font-weight:normal;text-anchor:middle;" transform="rotate(-90, 28.617187, 174.528)" x="28.617187" y="174.528">Coin Flips Needed</text>
    </g>
   </g>
   <g id="line2d_13">
    <path clip-path="url(#pb961de1507)" d="M 73.832727 74.803075 
L 77.112066 79.221667 
L 80.391405 83.56316 
L 83.670744 87.829191 
L 86.950083 92.02136 
L 90.229421 96.141221 
L 93.50876 100.190292 
L 96.788099 104.170052 
L 100.067438 108.081941 
L 103.346777 111.927365 
L 106.626116 115.707694 
L 109.905455 119.424262 
L 113.184793 123.078374 
L 116.464132 126.671301 
L 119.743471 130.20428 
L 123.02281 133.678523 
L 126.302149 137.095209 
L 129.581488 140.455488 
L 132.860826 143.760486 
L 136.140165 147.011299 
L 139.419504 150.208996 
L 142.698843 153.354624 
L 145.978182 156.449203 
L 149.257521 159.493728 
L 152.53686 162.489173 
L 155.816198 165.436487 
L 159.095537 168.3366 
L 162.374876 171.190417 
L 165.654215 173.998823 
L 168.933554 176.762685 
L 172.212893 179.482847 
L 175.492231 182.160135 
L 178.77157 184.795358 
L 182.050909 187.389304 
L 185.330248 189.942744 
L 188.609587 192.456432 
L 191.888926 194.931107 
L 195.168264 197.367487 
L 198.447603 199.766279 
L 201.726942 202.128172 
L 205.006281 204.453839 
L 208.28562 206.74394 
L 211.564959 208.99912 
L 214.844298 211.22001 
L 218.123636 213.407228 
L 221.402975 215.561376 
L 224.682314 217.683047 
L 227.961653 219.772818 
L 231.240992 221.831255 
L 234.520331 223.858913 
L 237.799669 225.856334 
L 241.079008 227.824049 
L 244.358347 229.762577 
L 247.637686 231.672427 
L 250.917025 233.554097 
L 254.196364 235.408076 
L 257.475702 237.234842 
L 260.755041 239.034861 
L 264.03438 240.808592 
L 267.313719 242.556485 
L 270.593058 244.278979 
L 273.872397 245.976506 
L 277.151736 247.649486 
L 280.431074 249.298334 
L 283.710413 250.923455 
L 286.989752 252.525247 
L 290.269091 254.104098 
L 293.54843 255.66039 
L 296.827769 257.194497 
L 300.107107 258.706786 
L 303.386446 260.197616 
L 306.665785 261.667339 
L 309.945124 263.1163 
L 313.224463 264.54484 
L 316.503802 265.953288 
L 319.78314 267.341972 
L 323.062479 268.711211 
L 326.341818 270.061318 
L 329.621157 271.392599 
L 332.900496 272.705358 
L 336.179835 273.999889 
L 339.459174 275.276482 
L 342.738512 276.535422 
L 346.017851 277.776988 
L 349.29719 279.001454 
L 352.576529 280.20909 
L 355.855868 281.400158 
L 359.135207 282.574918 
L 362.414545 283.733624 
L 365.693884 284.876526 
L 368.973223 286.003867 
L 372.252562 287.115889 
L 375.531901 288.212828 
L 378.81124 289.294915 
L 382.090579 290.362377 
L 385.369917 291.415439 
L 388.649256 292.454318 
L 391.928595 293.479231 
L 395.207934 294.490389 
L 398.487273 295.488 
" style="fill:none;stroke:#1f77b4;stroke-linecap:square;stroke-width:1.5;"/>
   </g>
   <g id="line2d_14">
    <path clip-path="url(#pb961de1507)" d="M 73.832727 72.993021 
L 77.112066 105.662375 
L 80.391405 90.652132 
L 83.670744 93.300998 
L 86.950083 53.568 
L 90.229421 86.237354 
L 93.50876 74.758932 
L 96.788099 96.83282 
L 100.067438 85.354399 
L 103.346777 92.418043 
L 106.626116 95.066909 
L 109.905455 70.344155 
L 113.184793 67.695288 
L 116.464132 89.769176 
L 119.743471 105.662375 
L 123.02281 79.17371 
L 126.302149 99.481687 
L 129.581488 97.715776 
L 132.860826 82.705532 
L 136.140165 118.906708 
L 139.419504 105.662375 
L 142.698843 80.056665 
L 145.978182 110.960109 
L 149.257521 81.822576 
L 152.53686 95.066909 
L 155.816198 80.939621 
L 159.095537 99.481687 
L 162.374876 108.311242 
L 165.654215 81.822576 
L 168.933554 118.023753 
L 172.212893 94.183954 
L 175.492231 121.555575 
L 178.77157 107.428286 
L 182.050909 137.448774 
L 185.330248 88.003265 
L 188.609587 117.140797 
L 191.888926 123.321486 
L 195.168264 113.608975 
L 198.447603 112.72602 
L 201.726942 132.151041 
L 205.006281 105.662375 
L 208.28562 124.204441 
L 211.564959 103.896464 
L 214.844298 125.087397 
L 218.123636 102.130553 
L 221.402975 125.970352 
L 224.682314 148.927196 
L 227.961653 94.183954 
L 231.240992 102.130553 
L 234.520331 124.204441 
L 237.799669 110.077153 
L 241.079008 133.033996 
L 244.358347 132.151041 
L 247.637686 127.736263 
L 250.917025 118.906708 
L 254.196364 111.843064 
L 257.475702 136.565818 
L 260.755041 113.608975 
L 264.03438 116.257842 
L 267.313719 117.140797 
L 270.593058 163.937439 
L 273.872397 114.491931 
L 277.151736 132.151041 
L 280.431074 123.321486 
L 283.710413 142.746507 
L 286.989752 108.311242 
L 290.269091 122.43853 
L 293.54843 128.619219 
L 296.827769 134.799907 
L 300.107107 140.980596 
L 303.386446 140.097641 
L 306.665785 125.087397 
L 309.945124 125.087397 
L 313.224463 143.629463 
L 316.503802 128.619219 
L 319.78314 137.448774 
L 323.062479 120.672619 
L 326.341818 156.873795 
L 329.621157 138.331729 
L 332.900496 149.810151 
L 336.179835 125.970352 
L 339.459174 139.214685 
L 342.738512 145.395374 
L 346.017851 120.672619 
L 349.29719 136.565818 
L 352.576529 132.151041 
L 355.855868 127.736263 
L 359.135207 150.693107 
L 362.414545 133.916952 
L 365.693884 136.565818 
L 368.973223 155.107884 
L 372.252562 140.980596 
L 375.531901 151.576062 
L 378.81124 155.99084 
L 382.090579 148.04424 
L 385.369917 143.629463 
L 388.649256 144.512418 
L 391.928595 146.278329 
L 395.207934 163.054484 
L 398.487273 148.927196 
" style="fill:none;stroke:#ff7f0e;stroke-linecap:square;stroke-width:1.5;"/>
   </g>
   <g id="patch_3">
    <path d="M 57.6 307.584 
L 57.6 41.472 
" style="fill:none;stroke:#000000;stroke-linecap:square;stroke-linejoin:miter;stroke-width:0.8;"/>
   </g>
   <g id="patch_4">
    <path d="M 414.72 307.584 
L 414.72 41.472 
" style="fill:none;stroke:#000000;stroke-linecap:square;stroke-linejoin:miter;stroke-width:0.8;"/>
   </g>
   <g id="patch_5">
    <path d="M 57.6 307.584 
L 414.72 307.584 
" style="fill:none;stroke:#000000;stroke-linecap:square;stroke-linejoin:miter;stroke-width:0.8;"/>
   </g>
   <g id="patch_6">
    <path d="M 57.6 41.472 
L 414.72 41.472 
" style="fill:none;stroke:#000000;stroke-linecap:square;stroke-linejoin:miter;stroke-width:0.8;"/>
   </g>
   <g id="text_15">
    <text style="font-family:DejaVu Sans;font-size:12px;font-style:normal;font-weight:normal;text-anchor:middle;" transform="rotate(-0, 236.16, 35.472)" x="236.16" y="35.472">Coin Flips for 0.5*x/(1+0.5*x)</text>
   </g>
   <g id="legend_1">
    <g id="patch_7">
     <path d="M 200.996562 78.82825 
L 407.72 78.82825 
Q 409.72 78.82825 409.72 76.82825 
L 409.72 48.472 
Q 409.72 46.472 407.72 46.472 
L 200.996562 46.472 
Q 198.996562 46.472 198.996562 48.472 
L 198.996562 76.82825 
Q 198.996562 78.82825 200.996562 78.82825 
z
" style="fill:#ffffff;opacity:0.8;stroke:#cccccc;stroke-linejoin:miter;"/>
    </g>
    <g id="line2d_15">
     <path d="M 202.996562 54.570437 
L 222.996562 54.570437 
" style="fill:none;stroke:#1f77b4;stroke-linecap:square;stroke-width:1.5;"/>
    </g>
    <g id="line2d_16"/>
    <g id="text_16">
     <text style="font-family:DejaVu Sans;font-size:10px;font-style:normal;font-weight:normal;text-anchor:start;" transform="rotate(-0, 230.996562, 58.070437)" x="230.996562" y="58.070437">Coin Flip Lower Bound (Mendo)</text>
    </g>
    <g id="line2d_17">
     <path d="M 202.996562 69.248562 
L 222.996562 69.248562 
" style="fill:none;stroke:#ff7f0e;stroke-linecap:square;stroke-width:1.5;"/>
    </g>
    <g id="line2d_18"/>
    <g id="text_17">
     <text style="font-family:DejaVu Sans;font-size:10px;font-style:normal;font-weight:normal;text-anchor:start;" transform="rotate(-0, 230.996562, 72.748562)" x="230.996562" y="72.748562">Avg. Coins Flipped 0.5*x/(1+0.5*x)</text>
    </g>
   </g>
  </g>
 </g>
 <defs>
  <clipPath id="pb961de1507">
   <rect height="266.112" width="357.12" x="57.6" y="41.472"/>
  </clipPath>
 </defs>
</svg>

<svg height="460.8" viewBox="0 0 460.8 345.6" width="614.4" xmlns="http://www.w3.org/2000/svg" xmlns:xlink="http://www.w3.org/1999/xlink"><defs><style>*{stroke-linecap:butt;stroke-linejoin:round}</style></defs><g id="figure_1"><path d="M0 345.6h460.8V0H0z" fill="#fff" id="patch_1"/><g id="axes_1"><path d="M57.6 307.584h357.12V41.472H57.6z" fill="#fff" id="patch_2"/><g id="matplotlib.axis_1"><g id="xtick_1"><g id="line2d_1"><defs><path d="M0 0v3.5" id="mb0337742e0" stroke="#000" stroke-width=".8"/></defs><use x="73.8" xlink:href="#mb0337742e0" y="307.584" stroke="#000" stroke-width=".8"/></g><text x="73.8" y="322.182" font-family="DejaVu Sans" font-size="10" font-weight="400" text-anchor="middle" id="text_1">0.0</text></g><g id="xtick_2"><use x="138.744" xlink:href="#mb0337742e0" y="307.584" stroke="#000" stroke-width=".8" id="line2d_2"/><text x="138.744" y="322.182" font-family="DejaVu Sans" font-size="10" font-weight="400" text-anchor="middle" id="text_2">0.2</text></g><g id="xtick_3"><use x="203.688" xlink:href="#mb0337742e0" y="307.584" stroke="#000" stroke-width=".8" id="line2d_3"/><text x="203.688" y="322.182" font-family="DejaVu Sans" font-size="10" font-weight="400" text-anchor="middle" id="text_3">0.4</text></g><g id="xtick_4"><use x="268.632" xlink:href="#mb0337742e0" y="307.584" stroke="#000" stroke-width=".8" id="line2d_4"/><text x="268.632" y="322.182" font-family="DejaVu Sans" font-size="10" font-weight="400" text-anchor="middle" id="text_4">0.6</text></g><g id="xtick_5"><use x="333.576" xlink:href="#mb0337742e0" y="307.584" stroke="#000" stroke-width=".8" id="line2d_5"/><text x="333.576" y="322.182" font-family="DejaVu Sans" font-size="10" font-weight="400" text-anchor="middle" id="text_5">0.8</text></g><g id="xtick_6"><use x="398.52" xlink:href="#mb0337742e0" y="307.584" stroke="#000" stroke-width=".8" id="line2d_6"/><text x="398.52" y="322.182" font-family="DejaVu Sans" font-size="10" font-weight="400" text-anchor="middle" id="text_6">1.0</text></g><text x="236.16" y="335.861" font-family="DejaVu Sans" font-size="10" font-weight="400" text-anchor="middle" id="text_7">Input Coin&apos;s Heads Probability (λ)</text></g><g id="matplotlib.axis_2"><g id="ytick_1"><g id="line2d_7"><defs><path d="M0 0h-3.5" id="mf57be5e11b" stroke="#000" stroke-width=".8"/></defs><use x="57.6" xlink:href="#mf57be5e11b" y="295.498" stroke="#000" stroke-width=".8"/></g><text x="50.6" y="299.297" font-family="DejaVu Sans" font-size="10" font-weight="400" text-anchor="end" id="text_8">0.0</text></g><g id="ytick_2"><use x="57.6" xlink:href="#mf57be5e11b" y="251.35" stroke="#000" stroke-width=".8" id="line2d_8"/><text x="50.6" y="255.149" font-family="DejaVu Sans" font-size="10" font-weight="400" text-anchor="end" id="text_9">0.1</text></g><g id="ytick_3"><use x="57.6" xlink:href="#mf57be5e11b" y="207.202" stroke="#000" stroke-width=".8" id="line2d_9"/><text x="50.6" y="211.001" font-family="DejaVu Sans" font-size="10" font-weight="400" text-anchor="end" id="text_10">0.2</text></g><g id="ytick_4"><use x="57.6" xlink:href="#mf57be5e11b" y="163.054" stroke="#000" stroke-width=".8" id="line2d_10"/><text x="50.6" y="166.854" font-family="DejaVu Sans" font-size="10" font-weight="400" text-anchor="end" id="text_11">0.3</text></g><g id="ytick_5"><use x="57.6" xlink:href="#mf57be5e11b" y="118.907" stroke="#000" stroke-width=".8" id="line2d_11"/><text x="50.6" y="122.706" font-family="DejaVu Sans" font-size="10" font-weight="400" text-anchor="end" id="text_12">0.4</text></g><g id="ytick_6"><use x="57.6" xlink:href="#mf57be5e11b" y="74.759" stroke="#000" stroke-width=".8" id="line2d_12"/><text x="50.6" y="78.558" font-family="DejaVu Sans" font-size="10" font-weight="400" text-anchor="end" id="text_13">0.5</text></g><text transform="rotate(-90 28.617 174.528)" x="28.617" y="174.528" font-family="DejaVu Sans" font-size="10" font-weight="400" text-anchor="middle" id="text_14">Coin Flips Needed</text></g><path clip-path="url(#pb961de1507)" d="M73.833 74.803l3.28 4.419 3.278 4.341 3.28 4.266 3.28 4.192 3.278 4.12 3.28 4.05 3.28 3.98 3.278 3.91 3.28 3.846 3.28 3.78 3.278 3.717 3.28 3.654 3.28 3.593 3.278 3.533 3.28 3.475 3.28 3.416 3.278 3.36 3.28 3.305 3.28 3.251 3.279 3.198 3.279 3.146 3.28 3.094 3.279 3.045 3.279 2.995 3.28 2.947 3.279 2.9 3.279 2.854 3.28 2.809 3.279 2.764 3.279 2.72 3.28 2.677 3.279 2.635 3.279 2.594 3.28 2.554 3.279 2.513 3.279 2.475 3.28 2.436 3.279 2.4 3.279 2.361 3.28 2.326 3.279 2.29 3.279 2.255 3.28 2.221 3.279 2.187 3.279 2.154 3.28 2.122 3.279 2.09 3.279 2.058 3.28 2.028 3.279 1.997 3.279 1.968 3.28 1.939 3.279 1.91 3.279 1.881 3.28 1.854 3.279 1.827 3.279 1.8 3.28 1.774 3.279 1.747 3.28 1.723 3.278 1.698 3.28 1.672 3.28 1.65 3.278 1.624 3.28 1.602 3.28 1.58 3.278 1.555 3.28 1.534 3.28 1.513 3.278 1.49 3.28 1.47 3.28 1.45 3.278 1.428 3.28 1.408 3.28 1.389 3.278 1.37 3.28 1.35 3.28 1.33 3.278 1.313 3.28 1.295 3.28 1.276 3.279 1.26 3.279 1.241 3.28 1.224 3.279 1.208 3.279 1.191 3.28 1.175 3.279 1.159 3.279 1.143 3.28 1.127 3.279 1.112 3.279 1.097 3.28 1.082 3.279 1.067 3.279 1.053 3.28 1.04 3.279 1.024 3.279 1.011 3.28.998" fill="none" stroke="#1f77b4" stroke-linecap="square" stroke-width="1.5" id="line2d_13"/><path clip-path="url(#pb961de1507)" d="M73.833 72.993l3.28 32.67 3.278-15.01 3.28 2.648 3.28-39.733 3.278 32.67 3.28-11.48 3.28 22.075 3.278-11.479 3.28 7.064 3.28 2.649 3.278-24.723 3.28-2.649 3.28 22.074 3.278 15.893 3.28-26.488 3.28 20.308 3.278-1.766 3.28-15.01 3.28 36.2 3.279-13.244 3.279-25.605 3.28 30.903 3.279-29.137 3.279 13.244 3.28-14.127 3.279 18.542 3.279 8.83 3.28-26.49 3.279 36.202 3.279-23.84 3.28 27.372 3.279-14.128 3.279 30.02 3.28-49.445 3.279 29.138 3.279 6.18 3.28-9.712 3.279-.883 3.279 19.425 3.28-26.489 3.279 18.542 3.279-20.308 3.28 21.191 3.279-22.956 3.279 23.84 3.28 22.956 3.279-54.743 3.279 7.947 3.28 22.073 3.279-14.127 3.279 22.957 3.28-.883 3.279-4.415 3.279-8.83 3.28-7.063 3.279 24.723 3.279-22.957 3.28 2.649 3.279.883 3.28 46.796 3.278-49.445 3.28 17.659 3.28-8.83 3.278 19.426 3.28-34.436 3.28 14.128 3.278 6.18 3.28 6.18 3.28 6.182 3.278-.883 3.28-15.01h3.28l3.278 18.541 3.28-15.01 3.28 8.83 3.278-16.776 3.28 36.2 3.28-18.541 3.278 11.478 3.28-23.84 3.28 13.245 3.279 6.18 3.279-24.722 3.28 15.893 3.279-4.415 3.279-4.415 3.28 22.957 3.279-16.776 3.279 2.649 3.28 18.542 3.279-14.127 3.279 10.595 3.28 4.415 3.279-7.947 3.279-4.415 3.28.883 3.279 1.766 3.279 16.776 3.28-14.127" fill="none" stroke="#ff7f0e" stroke-linecap="square" stroke-width="1.5" id="line2d_14"/><path d="M57.6 307.584V41.472" fill="none" stroke="#000" stroke-linecap="square" stroke-width=".8" id="patch_3"/><path d="M414.72 307.584V41.472" fill="none" stroke="#000" stroke-linecap="square" stroke-width=".8" id="patch_4"/><path d="M57.6 307.584h357.12" fill="none" stroke="#000" stroke-linecap="square" stroke-width=".8" id="patch_5"/><path d="M57.6 41.472h357.12" fill="none" stroke="#000" stroke-linecap="square" stroke-width=".8" id="patch_6"/><text x="236.16" y="35.472" font-family="DejaVu Sans" font-size="12" font-weight="400" text-anchor="middle" id="text_15">Coin Flips for 0.5*x/(1+0.5*x)</text><g id="legend_1"><path d="M200.997 78.828H407.72q2 0 2-2V48.472q0-2-2-2H200.997q-2 0-2 2v28.356q0 2 2 2z" fill="#fff" opacity=".8" stroke="#ccc" id="patch_7"/><path d="M202.997 54.57h20" fill="none" stroke="#1f77b4" stroke-linecap="square" stroke-width="1.5" id="line2d_15"/><text x="230.997" y="58.07" font-family="DejaVu Sans" font-size="10" font-weight="400" id="text_16">Coin Flip Lower Bound (Mendo)</text><path d="M202.997 69.249h20" fill="none" stroke="#ff7f0e" stroke-linecap="square" stroke-width="1.5" id="line2d_17"/><text x="230.997" y="72.749" font-family="DejaVu Sans" font-size="10" font-weight="400" id="text_17">Avg. Coins Flipped 0.5*x/(1+0.5*x)</text></g></g></g><defs><clipPath id="pb961de1507"><path d="M57.6 41.472h357.12v266.112H57.6z"/></clipPath></defs></svg>
